X:1
T:Waco, 87.87.87 D with repeat
T:Waco, 87.87.87 D with repeat
T:Harrison Millard, 1873
T:Public Domain Courtesy of the Cyber Hymnal™
C:Harrison Millard, 1873
Z:Public Domain
Z:Courtesy of the Cyber Hymnal™
%%score ( 1 2 ) ( 3 4 )
L:1/8
Q:1/4=100
M:4/4
K:D
V:1 treble 
V:2 treble 
V:3 bass 
V:4 bass 
V:1
 [Fd]3 [Ac] [GB][FA][EG][DF] |!>(! ([FA]3 [EG])!>)! [CE]2 z2 | .[DF] [Fd]2 z [^GB][Gc][Gd][Ge] | %3
 (z2 G2 F2 E2) x6 | [Fd]3 [Ac] [GB][FA][EG][DF] | ([FA]3 [EG]) [CE]2 z2 | %6
 [DF]2 [Fd]2 [Gc][GA][EG][CE] | D6 z2 |!mf! [DG]2 [DG]2 [GB] [GB]3 | [Gd]2 [Gd]2 [GB]2 G2 | %10
 [FA]3 [FA] (^GA) (BA) | [Fd]2 [FA]2 [GB]2 z2 | [DG]2 [DG]2 [GB]2 [GB]2 | [Gd]2 [Gd]2 [GB]2 G2 | %14
 [FA]3 [FA] [GA]2 (Bc) | [Fd]2 A2 D2 z2 |!ff! [^Ge]3 [Gd] (=cB) A2 | [Fd]3 [F=c] (BA) G2 | %18
 [^DB]3 [DA] (GF) (EF) | [EG]2 [EA]2 [^DB]2 z2 | [DB]2 [DB]2 [Ge]2 [Ge]2 | %21
 [FA]2 [FA]2 [Gd]2 [Gd]2 | [GB]3 [Ac] [Bd]2 ([Ac][GB]) | ([GB]2 [FA]2) ([FA]2 [EG]2) | [DF]6 z2 | %25
 [GB]3 [Ac] [Bd]2 ([Ac][GB]) | [GA]4 [GA]4 |!>(! [Fd]8!>)! |] %28
V:2
 x8 | x8 | x8 | A8 x6 | x8 | x8 | x8 | D6 x2 | x8 | x6 G2 | x4 F2 F2 | x8 | x8 | x6 G2 | x6 G2 | %15
 x2 A2 D2 x2 | x4 A2 A2 | x4 G2 G2 | x4 E2 E2 | x8 | x8 | x8 | x8 | x8 | x8 | x8 | x8 | x8 |] %28
V:3
 [D,A,]3 [D,A,] [D,A,][D,A,][D,A,][D,A,] | [C,A,]4 [A,,A,]2 z2 | %2
 .[D,A,] [D,A,]2 z [E,D][E,D][E,D][E,D] | z2 x12 | [D,A,]3 [D,A,] [D,A,][D,A,][D,A,][D,A,] | %5
 [C,A,]4 [A,,A,]2 z2 | [D,A,]2 [D,A,]2 [A,,A,][A,,A,][A,,A,][A,,A,] | [D,F,]6 z2 | %8
 [G,B,]2 [G,B,]2 [G,D] [G,D]3 | [G,B,]2 [G,B,]2 [G,D]2 [G,B,]2 | [D,=C]3 [D,C] [D,C]2 [D,C]2 | %11
 [D,=C]2 [D,C]2 [G,B,]2 z2 | [G,B,]2 [G,B,]2 [G,D]2 [G,D]2 | [G,B,]2 [G,B,]2 [G,D]2 [G,B,]2 | %14
 [A,D]3 [A,D] [A,C]2 [A,E]2 | [D,D]2 A,2 D,2 z2 | [E,E]3 [E,E] (ED) [A,=C]2 | %17
 [D,D]3 [D,D] (D=C) [G,B,]2 | [B,,B,]3 [B,,B,] [E,B,]2 [E,B,]2 | [=C,=C]2 [C,F,]2 [B,,F,]2 z2 | %20
 [E,^G,]2 [E,G,]2 [A,C]2 [A,C]2 | [D,=C]2 [D,C]2 [G,B,]2 [G,B,]2 | [G,D]3 [G,D] [G,D]2 [G,D]2 | %23
 [A,D]4 [A,C]4 | [B,D]6 z2 | [G,D]3 [G,C] [G,B,]2 (CD) | [A,C]4 [A,E]4 | [D,D]8 |] %28
V:4
 x8 | x8 | x8 | [A,C]8 (E2 D2 C2) | x8 | x8 | x8 | x8 | x8 | x8 | x8 | x8 | x8 | x8 | x8 | %15
 x2 A,2 D,2 x2 | x4 A,2 x2 | x4 G,2 x2 | x8 | x8 | x8 | x8 | x8 | x8 | x8 | x6 G,2 | x8 | x8 |] %28

